groups/phosphorus/phosphite.svg

<svg height="256" viewBox="0 0 256 256" width="256" xmlns="http://www.w3.org/2000/svg"><path d="m0 0h256v256h-256z" fill="#fff"/><path d="m197.2 236.7.1-59.6" fill="none" stroke="#000" stroke-width="2"/><path d="m182.7 145.9-41.8-24.3" fill="none" stroke="#000" stroke-width="2"/><path d="m126.2 98.4.1-44.9" fill="none" stroke="#000" stroke-width="2"/><path d="m111.5 121.6-42 24.1" fill="none" stroke="#000" stroke-width="2"/><path d="m238.386 236.807c.006-3.087-4.109-3.095-4.116-.008-.006 3.087-4.121 3.078-4.115-.008.006-3.087-4.11-3.096-4.116-.009s-4.122 3.079-4.116-.008c.007-3.087-4.109-3.095-4.115-.008s-4.122 3.078-4.116-.008c.006-3.087-4.109-3.095-4.116-.009-.006 3.087-4.121 3.079-4.115-.008s-4.11-3.095-4.116-.008-4.122 3.078-4.116-.008c.007-3.087-4.109-3.095-4.115-.009-.006 3.087-4.122 3.079-4.116-.008s-4.109-3.095-4.116-.008c-.006 3.087-4.121 3.079-4.115-.008s-4.11-3.095-4.116-.009c-.006 3.087-4.122 3.079-4.116-.008.007-3.087-4.109-3.095-4.115-.008s-4.122 3.079-4.116-.008-4.109-3.095-4.115-.008c-.007 3.086-4.122 3.078-4.116-.009" fill="none" stroke="#7f7f7f" stroke-width="2"/><g font-family="sans-serif" font-size="40"><text x="185.4" y="174.4">O</text><text x="114.2" y="133.1">P</text><text x="114.4" y="50.8">O</text><text x="142" y="50.8">H</text><text x="17.2" y="174.1">H</text><text x="42.8" y="174.1">O</text></g></svg>

<?xml version='1.0' encoding='iso-8859-1'?>
<svg version='1.1' baseProfile='full'
              xmlns='http://www.w3.org/2000/svg'
                      xmlns:rdkit='http://www.rdkit.org/xml'
                      xmlns:xlink='http://www.w3.org/1999/xlink'
                  xml:space='preserve'
width='256px' height='256px' viewBox='0 0 256 256'>
<!-- END OF HEADER -->
<rect style='opacity:1.0;fill:#FFFFFF;stroke:none' width='256.0' height='256.0' x='0.0' y='0.0'> </rect>
<path class='bond-0 atom-0 atom-1' d='M 197.2,236.7 L 197.3,177.1' style='fill:none;fill-rule:evenodd;stroke:#000000;stroke-width:2.0px;stroke-linecap:butt;stroke-linejoin:miter;stroke-opacity:1' />
<path class='bond-1 atom-1 atom-2' d='M 182.7,145.9 L 140.9,121.6' style='fill:none;fill-rule:evenodd;stroke:#000000;stroke-width:2.0px;stroke-linecap:butt;stroke-linejoin:miter;stroke-opacity:1' />
<path class='bond-2 atom-2 atom-3' d='M 126.2,98.4 L 126.3,53.5' style='fill:none;fill-rule:evenodd;stroke:#000000;stroke-width:2.0px;stroke-linecap:butt;stroke-linejoin:miter;stroke-opacity:1' />
<path class='bond-3 atom-2 atom-4' d='M 111.5,121.6 L 69.5,145.7' style='fill:none;fill-rule:evenodd;stroke:#000000;stroke-width:2.0px;stroke-linecap:butt;stroke-linejoin:miter;stroke-opacity:1' />
<path class='atom-1' d='M238.386,236.807 C238.392,233.72 234.277,233.712 234.27,236.799 C234.264,239.886 230.149,239.877 230.155,236.791 C230.161,233.704 226.045,233.695 226.039,236.782 C226.033,239.869 221.917,239.861 221.923,236.774 C221.93,233.687 217.814,233.679 217.808,236.766 C217.802,239.853 213.686,239.844 213.692,236.758 C213.698,233.671 209.583,233.663 209.576,236.749 C209.57,239.836 205.455,239.828 205.461,236.741 C205.467,233.654 201.351,233.646 201.345,236.733 C201.339,239.82 197.223,239.811 197.229,236.725 C197.236,233.638 193.12,233.63 193.114,236.716 C193.108,239.803 188.992,239.795 188.998,236.708 C189.004,233.621 184.889,233.613 184.882,236.7 C184.876,239.787 180.761,239.779 180.767,236.692 C180.773,233.605 176.657,233.597 176.651,236.683 C176.645,239.77 172.529,239.762 172.535,236.675 C172.542,233.588 168.426,233.58 168.42,236.667 C168.414,239.754 164.298,239.746 164.304,236.659 C164.31,233.572 160.195,233.564 160.189,236.651 C160.182,239.737 156.067,239.729 156.073,236.642' style='fill:none;stroke:#7F7F7F;stroke-width:2.0px;stroke-linecap:butt;stroke-linejoin:miter;stroke-opacity:1' />
<text x='185.4' y='174.4' class='atom-1' style='font-size:40px;font-style:normal;font-weight:normal;fill-opacity:1;stroke:none;font-family:sans-serif;text-anchor:start;fill:#000000' >O</text>
<text x='114.2' y='133.1' class='atom-2' style='font-size:40px;font-style:normal;font-weight:normal;fill-opacity:1;stroke:none;font-family:sans-serif;text-anchor:start;fill:#000000' >P</text>
<text x='114.4' y='50.8' class='atom-3' style='font-size:40px;font-style:normal;font-weight:normal;fill-opacity:1;stroke:none;font-family:sans-serif;text-anchor:start;fill:#000000' >O</text>
<text x='142.0' y='50.8' class='atom-3' style='font-size:40px;font-style:normal;font-weight:normal;fill-opacity:1;stroke:none;font-family:sans-serif;text-anchor:start;fill:#000000' >H</text>
<text x='17.2' y='174.1' class='atom-4' style='font-size:40px;font-style:normal;font-weight:normal;fill-opacity:1;stroke:none;font-family:sans-serif;text-anchor:start;fill:#000000' >H</text>
<text x='42.8' y='174.1' class='atom-4' style='font-size:40px;font-style:normal;font-weight:normal;fill-opacity:1;stroke:none;font-family:sans-serif;text-anchor:start;fill:#000000' >O</text>
</svg>
